public/assets/logos/waltz-white.svg

<svg fill="none" height="31" viewBox="0 0 30 31" width="30" xmlns="http://www.w3.org/2000/svg"><path d="m3 8.04637h2.84062l5.37348 11.95543 2.4649-5.388-3.0645-6.56743h2.6647l1.7614 4.00743 1.7454-4.00743h2.6202l-3.0199 6.52293 2.5102 5.4325 5.3508-11.95543h2.7527l-7.0436 15.13843h-2.2024l-2.798-6.1222-2.7526 6.1222h-2.1578z" fill="#fff"/></svg>

<svg width="30" height="31" viewBox="0 0 30 31" fill="none" xmlns="http://www.w3.org/2000/svg">
<path d="M3 8.04637H5.84062L11.2141 20.0018L13.679 14.6138L10.6145 8.04637H13.2792L15.0406 12.0538L16.786 8.04637H19.4062L16.3863 14.5693L18.8965 20.0018L24.2473 8.04637H27L19.9564 23.1848H17.754L14.956 17.0626L12.2034 23.1848H10.0456L3 8.04637Z" fill="white"/>
</svg>
